Newaita-dark/apps/48/libreoffice-base.svg

<svg height="48" viewBox="0 0 48 48" width="48" xmlns="http://www.w3.org/2000/svg" xmlns:xlink="http://www.w3.org/1999/xlink"><linearGradient id="a" gradientTransform="matrix(.111618 0 0 .093759 -3.945504 20.158178)" gradientUnits="userSpaceOnUse" x1="254" x2="254" y1="233.5" y2="254.666672"><stop offset="0" stop-opacity=".27451"/><stop offset="1" stop-opacity="0"/></linearGradient><linearGradient id="b"><stop offset="0" stop-opacity=".313726"/><stop offset=".222222" stop-opacity=".27451"/><stop offset="1" stop-opacity="0"/></linearGradient><radialGradient id="c" cx="450.908936" cy="189.579361" gradientTransform="matrix(.00000026 -.117199 -.210958 -.00000015 75.715273 95.392999)" gradientUnits="userSpaceOnUse" r="21.166656" xlink:href="#b"/><radialGradient id="d" cx="450.908936" cy="189.579361" gradientTransform="matrix(-.00000026 .117199 .210958 .00000015 -28.085722 -11.291218)" gradientUnits="userSpaceOnUse" r="21.166656" xlink:href="#b"/><radialGradient id="e" cx="450.908936" cy="189.579361" gradientTransform="matrix(-.00000026 -.117199 .210958 -.00000015 -28.085722 95.392999)" gradientUnits="userSpaceOnUse" r="21.166656" xlink:href="#b"/><radialGradient id="f" cx="450.908936" cy="189.579361" gradientTransform="matrix(.00000026 .117199 -.210958 .00000015 75.71527 -11.291219)" gradientUnits="userSpaceOnUse" r="21.166656" xlink:href="#b"/><linearGradient id="g"><stop offset="0" stop-color="#ec407a"/><stop offset="1" stop-color="#f06292"/></linearGradient><linearGradient id="h" gradientUnits="userSpaceOnUse" x1="23.814816" x2="23.814816" xlink:href="#g" y1="42.05096580616" y2="4.34417266504"/><linearGradient id="i" gradientUnits="userSpaceOnUse" x1="23.814816" x2="23.814816" y1="40.06639780616" y2="6.32874066504"><stop offset="0" stop-color="#e0e0e0"/><stop offset="1" stop-color="#eee"/></linearGradient><linearGradient id="j" gradientUnits="userSpaceOnUse" x1="23.814816" x2="23.814816" xlink:href="#g" y1="29.64743880616" y2="15.75546129293"/><path d="m11.410156 42.050781h24.808594v1.984375h-24.808594zm0 0" fill="url(#a)"/><path d="m36.21875 42.050781h3.96875v-1.984375h-3.96875zm0 0" fill="url(#c)"/><path d="m11.410156 42.050781h-3.96875v1.984375h3.96875zm0 0" fill="url(#d)"/><path d="m11.410156 42.050781h-3.96875v-1.984375h3.96875zm0 0" fill="url(#e)"/><path d="m36.21875 42.050781h3.96875v1.984375h-3.96875zm0 0" fill="url(#f)"/><path d="m9.921875 4.34375c-1.097656 0-1.984375.886719-1.984375 1.984375v33.738281c0 1.097656.886719 1.984375 1.984375 1.984375h27.785156c1.097657 0 1.984375-.886719 1.984375-1.984375v-22.582031l-13.140625-13.140625zm20.839844 0 8.929687 8.929688v-6.945313c0-1.097656-.886718-1.984375-1.984375-1.984375zm0 0" fill="url(#h)"/><path d="m10.914062 6.328125c-.546874 0-.992187.441406-.992187.992187v31.753907c0 .550781.445313.992187.992187.992187h25.800782c.550781 0 .992187-.441406.992187-.992187v-20.839844l-11.90625-11.90625zm0 0" fill="url(#i)"/><path d="m9.921875 4.34375c-1.097656 0-1.984375.886719-1.984375 1.984375v.496094c0-1.097657.886719-1.984375 1.984375-1.984375h16.628906l13.140625 13.140625v-.496094l-13.140625-13.140625zm20.839844 0 .496093.496094h6.449219c1.097657 0 1.984375.886718 1.984375 1.984375v-.496094c0-1.097656-.886718-1.984375-1.984375-1.984375zm0 0" fill="#fff" fill-opacity=".392157"/><path d="m10.914062 6.328125c-.546874 0-.992187.441406-.992187.992187v.746094c0-.550781.445313-.992187.992187-.992187h14.886719l11.90625 11.90625v-.746094l-11.90625-11.90625zm0 0" fill-opacity=".235294"/><path d="m9.921875 39.109375v.46875c0 .550781.445313.992187.992187.992187h25.800782c.550781 0 .992187-.441406.992187-.992187v-.46875c0 .550781-.441406.992187-.992187.992187h-25.800782c-.546874 0-.992187-.441406-.992187-.992187zm0 0" fill="#fff" fill-opacity=".392157"/><path d="m439.958009 255.093763c-22.04514 0-39.996182 17.793578-39.996182 39.996183v1280.03531c0 22.202606 17.951042 39.996183 39.996182 39.996183h1040.058215c22.202605 0 39.996182-17.793577 39.996182-39.996183v-840.077301l-479.954192-479.954192zm0 0" fill="none" stroke="#212121" stroke-linecap="round" stroke-linejoin="round" stroke-width="11.338583" transform="scale(.0248071)"/><path d="m30.761719 4.34375 8.929687 8.929688v-.484376l-8.445312-8.445312zm-22.824219 35.238281v.484375c0 1.097656.886719 1.984375 1.984375 1.984375h27.785156c1.097657 0 1.984375-.886719 1.984375-1.984375v-.484375c0 1.097657-.886718 1.984375-1.984375 1.984375h-27.785156c-1.097656 0-1.984375-.886718-1.984375-1.984375zm0 0" fill-opacity=".235294"/><path d="m399.961827 175.101398c-44.247746 0-79.992366 35.74462-79.992366 79.992365v1360.027676c0 44.247745 35.74462 79.992365 79.992366 79.992365h1120.050579c44.247746 0 79.992366-35.74462 79.992366-79.992365v-910.306819l-529.713223-529.713222zm840.077301 0 359.965644 359.965644v-279.973279c0-44.247745-35.74462-79.992365-79.992366-79.992365zm0 0" fill="none" stroke="#212121" stroke-linecap="round" stroke-linejoin="round" stroke-width="11.338583" transform="scale(.0248071)"/><path d="m23.816406 15.753906c-3.574218 0-6.453125 1.328125-6.453125 2.976563 0 1.652343 2.878907 2.980469 6.453125 2.980469 3.570313 0 6.449219-1.328126 6.449219-2.980469 0-1.648438-2.878906-2.976563-6.449219-2.976563zm-5.59375 5.957032c-.546875.4375-.859375.945312-.859375 1.488281 0 1.648437 2.878907 2.976562 6.453125 2.976562 3.570313 0 6.449219-1.328125 6.449219-2.976562 0-.542969-.3125-1.050781-.859375-1.488281-1.113281.890624-3.195312 1.488281-5.589844 1.488281-2.398437 0-4.480468-.597657-5.59375-1.488281zm0 4.464843c-.546875.4375-.859375.945313-.859375 1.488281 0 1.648438 2.878907 2.976563 6.453125 2.976563 3.570313 0 6.449219-1.328125 6.449219-2.976563 0-.542968-.3125-1.050781-.859375-1.488281-1.113281.890625-3.195312 1.488281-5.589844 1.488281-2.398437 0-4.480468-.597656-5.59375-1.488281zm0 0" fill="url(#j)"/><path d="m23.816406 15.753906c-3.574218 0-6.453125 1.328125-6.453125 2.976563 0 .085937.007813.167969.023438.25.273437-1.53125 3.035156-2.730469 6.429687-2.730469 3.390625 0 6.15625 1.199219 6.425782 2.730469.015624-.082031.023437-.164063.023437-.25 0-1.648438-2.878906-2.976563-6.449219-2.976563zm-5.59375 5.957032c-.546875.433593-.859375.945312-.859375 1.488281 0 .082031.007813.164062.023438.246093.082031-.449218.375-.871093.835937-1.238281 1.113282.890625 3.195313 1.488281 5.59375 1.488281 2.394532 0 4.476563-.597656 5.589844-1.488281.460938.367188.757812.789063.835938 1.238281.015624-.082031.023437-.164062.023437-.246093 0-.542969-.3125-1.054688-.859375-1.488281-1.113281.890624-3.195312 1.488281-5.589844 1.488281-2.398437 0-4.480468-.597657-5.59375-1.488281zm0 4.464843c-.546875.4375-.859375.945313-.859375 1.488281 0 .082032.007813.164063.023438.246094.082031-.449218.375-.871094.835937-1.238281 1.113282.890625 3.195313 1.488281 5.59375 1.488281 2.394532 0 4.476563-.597656 5.589844-1.488281.460938.367187.757812.789063.835938 1.238281.015624-.082031.023437-.164062.023437-.246094 0-.542968-.3125-1.050781-.859375-1.488281-1.113281.890625-3.195312 1.488281-5.589844 1.488281-2.398437 0-4.480468-.597656-5.59375-1.488281zm0 0" fill="#fff" fill-opacity=".392157"/><path d="m17.414062 19.105469c-.03125.121093-.050781.246093-.050781.371093 0 1.648438 2.878907 2.976563 6.453125 2.976563 3.570313 0 6.449219-1.328125 6.449219-2.976563 0-.125-.019531-.25-.050781-.371093-.394532 1.472656-3.101563 2.605469-6.398438 2.605469-3.300781 0-6.007812-1.132813-6.402344-2.605469zm0 4.464843c-.03125.121094-.050781.246094-.050781.371094 0 1.648438 2.878907 2.976563 6.453125 2.976563 3.570313 0 6.449219-1.328125 6.449219-2.976563 0-.125-.019531-.25-.050781-.371094-.394532 1.472657-3.101563 2.605469-6.398438 2.605469-3.300781 0-6.007812-1.132812-6.402344-2.605469zm0 4.464844c-.03125.121094-.050781.246094-.050781.371094 0 1.648438 2.878907 2.976562 6.453125 2.976562 3.570313 0 6.449219-1.328124 6.449219-2.976562 0-.125-.019531-.25-.050781-.371094-.394532 1.472656-3.101563 2.605469-6.398438 2.605469-3.300781 0-6.007812-1.132813-6.402344-2.605469zm0 0" fill-opacity=".235294"/><path d="m254.017409-46.974379c-38.121359 0-68.82676 14.165314-68.82676 31.746968 0 17.623317 30.705401 31.788631 68.82676 31.788631 38.079697 0 68.785098-14.165314 68.785098-31.788631 0-17.581654-30.705401-31.746968-68.785098-31.746968zm-59.660969 63.535599c-5.832776 4.666221-9.165791 10.082371-9.165791 15.873484 0 17.581655 30.705401 31.746969 68.82676 31.746969 38.079697 0 68.785098-14.165314 68.785098-31.746969 0-5.791113-3.333015-11.207263-9.165791-15.873484-11.873866 9.499093-34.080079 15.873484-59.619307 15.873484-25.58089 0-47.787103-6.374391-59.660969-15.873484zm0 47.620453c-5.832776 4.666221-9.165791 10.08237-9.165791 15.873484 0 17.581654 30.705401 31.746968 68.82676 31.746968 38.079697 0 68.785098-14.165314 68.785098-31.746968 0-5.791114-3.333015-11.207263-9.165791-15.873484-11.873866 9.499093-34.080079 15.873484-59.619307 15.873484-25.58089 0-47.787103-6.374391-59.660969-15.873484zm0 0" fill="none" stroke="#212121" stroke-linecap="round" stroke-linejoin="round" stroke-width="3" transform="matrix(.093759 0 0 .093759 0 20.158175)"/></svg>

<?xml version="1.0" encoding="UTF-8"?>
<svg xmlns="http://www.w3.org/2000/svg" xmlns:xlink="http://www.w3.org/1999/xlink" width="48px" height="48px" viewBox="0 0 48 48" version="1.1">
<defs>
<linearGradient id="linear0" gradientUnits="userSpaceOnUse" x1="254" y1="233.5" x2="254" y2="254.666672" gradientTransform="matrix(0.111618,0,0,0.093759,-3.945504,20.158178)">
<stop offset="0" style="stop-color:rgb(0%,0%,0%);stop-opacity:0.27451;"/>
<stop offset="1" style="stop-color:rgb(0%,0%,0%);stop-opacity:0;"/>
</linearGradient>
<radialGradient id="radial0" gradientUnits="userSpaceOnUse" cx="450.908936" cy="189.579361" fx="450.908936" fy="189.579361" r="21.166656" gradientTransform="matrix(0.000000261256,-0.117199,-0.210958,-0.000000152308,75.715273,95.392999)">
<stop offset="0" style="stop-color:rgb(0%,0%,0%);stop-opacity:0.313726;"/>
<stop offset="0.222222" style="stop-color:rgb(0%,0%,0%);stop-opacity:0.27451;"/>
<stop offset="1" style="stop-color:rgb(0%,0%,0%);stop-opacity:0;"/>
</radialGradient>
<radialGradient id="radial1" gradientUnits="userSpaceOnUse" cx="450.908936" cy="189.579361" fx="450.908936" fy="189.579361" r="21.166656" gradientTransform="matrix(-0.000000261256,0.117199,0.210958,0.000000152308,-28.085722,-11.291218)">
<stop offset="0" style="stop-color:rgb(0%,0%,0%);stop-opacity:0.313726;"/>
<stop offset="0.222222" style="stop-color:rgb(0%,0%,0%);stop-opacity:0.27451;"/>
<stop offset="1" style="stop-color:rgb(0%,0%,0%);stop-opacity:0;"/>
</radialGradient>
<radialGradient id="radial2" gradientUnits="userSpaceOnUse" cx="450.908936" cy="189.579361" fx="450.908936" fy="189.579361" r="21.166656" gradientTransform="matrix(-0.000000261256,-0.117199,0.210958,-0.000000152308,-28.085722,95.392999)">
<stop offset="0" style="stop-color:rgb(0%,0%,0%);stop-opacity:0.313726;"/>
<stop offset="0.222222" style="stop-color:rgb(0%,0%,0%);stop-opacity:0.27451;"/>
<stop offset="1" style="stop-color:rgb(0%,0%,0%);stop-opacity:0;"/>
</radialGradient>
<radialGradient id="radial3" gradientUnits="userSpaceOnUse" cx="450.908936" cy="189.579361" fx="450.908936" fy="189.579361" r="21.166656" gradientTransform="matrix(0.000000261256,0.117199,-0.210958,0.000000152308,75.71527,-11.291219)">
<stop offset="0" style="stop-color:rgb(0%,0%,0%);stop-opacity:0.313726;"/>
<stop offset="0.222222" style="stop-color:rgb(0%,0%,0%);stop-opacity:0.27451;"/>
<stop offset="1" style="stop-color:rgb(0%,0%,0%);stop-opacity:0;"/>
</radialGradient>
<linearGradient id="linear1" gradientUnits="userSpaceOnUse" x1="254" y1="233.5" x2="254" y2="-168.666672" gradientTransform="matrix(0.093759,0,0,0.093759,0,20.158174)">
<stop offset="0" style="stop-color:rgb(87.843138%,87.843138%,87.843138%);stop-opacity:1;"/>
<stop offset="1" style="stop-color:rgb(93.333334%,93.333334%,93.333334%);stop-opacity:1;"/>
</linearGradient>
<linearGradient id="linear2" gradientUnits="userSpaceOnUse" x1="413.712219" y1="-474.701691" x2="413.712219" y2="-72.535034" gradientTransform="matrix(0.093759,0,0,0.093759,0,20.158174)">
<stop offset="0" style="stop-color:rgb(92.54902%,25.098041%,47.843137%);stop-opacity:1;"/>
<stop offset="1" style="stop-color:rgb(94.117647%,38.431373%,57.254905%);stop-opacity:1;"/>
</linearGradient>
<linearGradient id="linear3" gradientUnits="userSpaceOnUse" x1="940" y1="1215.118164" x2="940" y2="655.118103" gradientTransform="matrix(0.0248071,0,0,0.0248071,0.496142,-0.49614)">
<stop offset="0" style="stop-color:rgb(92.54902%,25.098041%,47.843137%);stop-opacity:1;"/>
<stop offset="1" style="stop-color:rgb(94.117647%,38.431373%,57.254905%);stop-opacity:1;"/>
</linearGradient>
</defs>
<g id="surface1">
<path style=" stroke:none;fill-rule:nonzero;fill:url(#linear0);" d="M 11.410156 42.050781 L 36.21875 42.050781 L 36.21875 44.035156 L 11.410156 44.035156 Z M 11.410156 42.050781 "/>
<path style=" stroke:none;fill-rule:nonzero;fill:url(#radial0);" d="M 36.21875 42.050781 L 40.1875 42.050781 L 40.1875 40.066406 L 36.21875 40.066406 Z M 36.21875 42.050781 "/>
<path style=" stroke:none;fill-rule:nonzero;fill:url(#radial1);" d="M 11.410156 42.050781 L 7.441406 42.050781 L 7.441406 44.035156 L 11.410156 44.035156 Z M 11.410156 42.050781 "/>
<path style=" stroke:none;fill-rule:nonzero;fill:url(#radial2);" d="M 11.410156 42.050781 L 7.441406 42.050781 L 7.441406 40.066406 L 11.410156 40.066406 Z M 11.410156 42.050781 "/>
<path style=" stroke:none;fill-rule:nonzero;fill:url(#radial3);" d="M 36.21875 42.050781 L 40.1875 42.050781 L 40.1875 44.035156 L 36.21875 44.035156 Z M 36.21875 42.050781 "/>
<path style=" stroke:none;fill-rule:nonzero;fill:url(#linear1);" d="M 29.859375 4.34375 L 9.921875 4.34375 C 8.824219 4.34375 7.9375 5.230469 7.9375 6.328125 L 7.9375 40.066406 C 7.9375 41.164062 8.824219 42.050781 9.921875 42.050781 L 37.707031 42.050781 C 38.804688 42.050781 39.691406 41.164062 39.691406 40.066406 L 39.691406 13.355469 Z M 29.859375 4.34375 "/>
<path style=" stroke:none;fill-rule:nonzero;fill:url(#linear2);" d="M 29.859375 4.34375 L 39.691406 13.355469 L 39.691406 6.328125 C 39.691406 5.230469 38.804688 4.34375 37.707031 4.34375 Z M 29.859375 4.34375 "/>
<path style=" stroke:none;fill-rule:nonzero;fill:rgb(0%,0%,0%);fill-opacity:0.235294;" d="M 7.9375 39.570312 L 7.9375 40.066406 C 7.9375 41.164062 8.824219 42.050781 9.921875 42.050781 L 37.707031 42.050781 C 38.804688 42.050781 39.691406 41.164062 39.691406 40.066406 L 39.691406 39.570312 C 39.691406 40.667969 38.804688 41.554688 37.707031 41.554688 L 9.921875 41.554688 C 8.824219 41.554688 7.9375 40.667969 7.9375 39.570312 Z M 7.9375 39.570312 "/>
<path style=" stroke:none;fill-rule:nonzero;fill:rgb(100%,100%,100%);fill-opacity:1;" d="M 9.921875 4.34375 C 8.824219 4.34375 7.9375 5.230469 7.9375 6.328125 L 7.9375 7.320312 C 7.9375 6.222656 8.824219 5.335938 9.921875 5.335938 L 29.859375 5.335938 L 39.691406 14.351562 L 39.691406 13.355469 L 29.859375 4.34375 Z M 9.921875 4.34375 "/>
<path style=" stroke:none;fill-rule:nonzero;fill:rgb(100%,100%,100%);fill-opacity:0.392157;" d="M 29.859375 4.34375 L 30.941406 5.335938 L 37.707031 5.335938 C 38.804688 5.335938 39.691406 6.222656 39.691406 7.320312 L 39.691406 6.328125 C 39.691406 5.230469 38.804688 4.34375 37.707031 4.34375 Z M 29.859375 4.34375 "/>
<path style=" stroke:none;fill-rule:nonzero;fill:rgb(0%,0%,0%);fill-opacity:0.235294;" d="M 29.859375 4.34375 L 39.691406 13.355469 L 39.691406 12.53125 L 30.761719 4.34375 Z M 29.859375 4.34375 "/>
<path style="fill:none;stroke-width:11.338583;stroke-linecap:round;stroke-linejoin:round;stroke:rgb(12.941177%,12.941177%,12.941177%);stroke-opacity:1;stroke-miterlimit:4;" d="M 1203.664647 175.101398 L 399.961827 175.101398 C 355.714081 175.101398 319.969461 210.846018 319.969461 255.093763 L 319.969461 1615.121439 C 319.969461 1659.369184 355.714081 1695.113804 399.961827 1695.113804 L 1520.012406 1695.113804 C 1564.260152 1695.113804 1600.004772 1659.369184 1600.004772 1615.121439 L 1600.004772 538.373813 Z M 1203.664647 175.101398 " transform="matrix(0.0248071,0,0,0.0248071,0,0)"/>
<path style="fill:none;stroke-width:3;stroke-linecap:round;stroke-linejoin:round;stroke:rgb(12.941177%,12.941177%,12.941177%);stroke-opacity:1;stroke-miterlimit:4;" d="M 318.469588 -168.671091 L 423.334574 -72.555269 L 423.334574 -147.506445 C 423.334574 -159.213661 413.877143 -168.671091 402.169928 -168.671091 Z M 318.469588 -168.671091 " transform="matrix(0.093759,0,0,0.093759,0,20.158175)"/>
<path style=" stroke:none;fill-rule:nonzero;fill:url(#linear3);" d="M 23.816406 15.753906 C 20.242188 15.753906 17.363281 17.082031 17.363281 18.730469 C 17.363281 20.382812 20.242188 21.710938 23.816406 21.710938 C 27.386719 21.710938 30.265625 20.382812 30.265625 18.730469 C 30.265625 17.082031 27.386719 15.753906 23.816406 15.753906 Z M 18.222656 21.710938 C 17.675781 22.144531 17.363281 22.65625 17.363281 23.199219 C 17.363281 24.847656 20.242188 26.175781 23.816406 26.175781 C 27.386719 26.175781 30.265625 24.847656 30.265625 23.199219 C 30.265625 22.65625 29.953125 22.144531 29.40625 21.710938 C 28.292969 22.601562 26.210938 23.199219 23.816406 23.199219 C 21.417969 23.199219 19.335938 22.601562 18.222656 21.710938 Z M 18.222656 26.175781 C 17.675781 26.613281 17.363281 27.121094 17.363281 27.664062 C 17.363281 29.3125 20.242188 30.640625 23.816406 30.640625 C 27.386719 30.640625 30.265625 29.3125 30.265625 27.664062 C 30.265625 27.121094 29.953125 26.613281 29.40625 26.175781 C 28.292969 27.066406 26.210938 27.664062 23.816406 27.664062 C 21.417969 27.664062 19.335938 27.066406 18.222656 26.175781 Z M 18.222656 26.175781 "/>
<path style=" stroke:none;fill-rule:nonzero;fill:rgb(100%,100%,100%);fill-opacity:0.392157;" d="M 23.816406 15.753906 C 20.242188 15.753906 17.363281 17.082031 17.363281 18.730469 C 17.363281 18.816406 17.371094 18.898438 17.386719 18.980469 C 17.660156 17.449219 20.421875 16.25 23.816406 16.25 C 27.207031 16.25 29.972656 17.449219 30.242188 18.980469 C 30.257812 18.898438 30.265625 18.816406 30.265625 18.730469 C 30.265625 17.082031 27.386719 15.753906 23.816406 15.753906 Z M 18.222656 21.710938 C 17.675781 22.144531 17.363281 22.65625 17.363281 23.199219 C 17.363281 23.28125 17.371094 23.363281 17.386719 23.445312 C 17.46875 22.996094 17.761719 22.574219 18.222656 22.207031 C 19.335938 23.097656 21.417969 23.695312 23.816406 23.695312 C 26.210938 23.695312 28.292969 23.097656 29.40625 22.207031 C 29.867188 22.574219 30.164062 22.996094 30.242188 23.445312 C 30.257812 23.363281 30.265625 23.28125 30.265625 23.199219 C 30.265625 22.65625 29.953125 22.144531 29.40625 21.710938 C 28.292969 22.601562 26.210938 23.199219 23.816406 23.199219 C 21.417969 23.199219 19.335938 22.601562 18.222656 21.710938 Z M 18.222656 26.175781 C 17.675781 26.613281 17.363281 27.121094 17.363281 27.664062 C 17.363281 27.746094 17.371094 27.828125 17.386719 27.910156 C 17.46875 27.460938 17.761719 27.039062 18.222656 26.671875 C 19.335938 27.5625 21.417969 28.160156 23.816406 28.160156 C 26.210938 28.160156 28.292969 27.5625 29.40625 26.671875 C 29.867188 27.039062 30.164062 27.460938 30.242188 27.910156 C 30.257812 27.828125 30.265625 27.746094 30.265625 27.664062 C 30.265625 27.121094 29.953125 26.613281 29.40625 26.175781 C 28.292969 27.066406 26.210938 27.664062 23.816406 27.664062 C 21.417969 27.664062 19.335938 27.066406 18.222656 26.175781 Z M 18.222656 26.175781 "/>
<path style=" stroke:none;fill-rule:nonzero;fill:rgb(0%,0%,0%);fill-opacity:0.235294;" d="M 17.414062 19.105469 C 17.382812 19.226562 17.363281 19.351562 17.363281 19.476562 C 17.363281 21.125 20.242188 22.453125 23.816406 22.453125 C 27.386719 22.453125 30.265625 21.125 30.265625 19.476562 C 30.265625 19.351562 30.246094 19.226562 30.214844 19.105469 C 29.820312 20.578125 27.113281 21.710938 23.816406 21.710938 C 20.515625 21.710938 17.808594 20.578125 17.414062 19.105469 Z M 17.414062 23.570312 C 17.382812 23.691406 17.363281 23.816406 17.363281 23.941406 C 17.363281 25.589844 20.242188 26.917969 23.816406 26.917969 C 27.386719 26.917969 30.265625 25.589844 30.265625 23.941406 C 30.265625 23.816406 30.246094 23.691406 30.214844 23.570312 C 29.820312 25.042969 27.113281 26.175781 23.816406 26.175781 C 20.515625 26.175781 17.808594 25.042969 17.414062 23.570312 Z M 17.414062 28.035156 C 17.382812 28.15625 17.363281 28.28125 17.363281 28.40625 C 17.363281 30.054688 20.242188 31.382812 23.816406 31.382812 C 27.386719 31.382812 30.265625 30.054688 30.265625 28.40625 C 30.265625 28.28125 30.246094 28.15625 30.214844 28.035156 C 29.820312 29.507812 27.113281 30.640625 23.816406 30.640625 C 20.515625 30.640625 17.808594 29.507812 17.414062 28.035156 Z M 17.414062 28.035156 "/>
<path style="fill:none;stroke-width:3;stroke-linecap:round;stroke-linejoin:round;stroke:rgb(12.941177%,12.941177%,12.941177%);stroke-opacity:1;stroke-miterlimit:4;" d="M 254.017409 -46.974379 C 215.89605 -46.974379 185.190649 -32.809065 185.190649 -15.227411 C 185.190649 2.395906 215.89605 16.56122 254.017409 16.56122 C 292.097106 16.56122 322.802507 2.395906 322.802507 -15.227411 C 322.802507 -32.809065 292.097106 -46.974379 254.017409 -46.974379 Z M 194.35644 16.56122 C 188.523664 21.185779 185.190649 26.643591 185.190649 32.434704 C 185.190649 50.016359 215.89605 64.181673 254.017409 64.181673 C 292.097106 64.181673 322.802507 50.016359 322.802507 32.434704 C 322.802507 26.643591 319.469492 21.185779 313.636716 16.56122 C 301.76285 26.060313 279.556637 32.434704 254.017409 32.434704 C 228.436519 32.434704 206.230306 26.060313 194.35644 16.56122 Z M 194.35644 64.181673 C 188.523664 68.847894 185.190649 74.264043 185.190649 80.055157 C 185.190649 97.636811 215.89605 111.802125 254.017409 111.802125 C 292.097106 111.802125 322.802507 97.636811 322.802507 80.055157 C 322.802507 74.264043 319.469492 68.847894 313.636716 64.181673 C 301.76285 73.680766 279.556637 80.055157 254.017409 80.055157 C 228.436519 80.055157 206.230306 73.680766 194.35644 64.181673 Z M 194.35644 64.181673 " transform="matrix(0.093759,0,0,0.093759,0,20.158175)"/>
</g>
</svg>
